X: 1
T:Rigaudon
C:Johann Kaspar Ferdinand Fischer
Z:Transcribed by Frank Nordberg - http://www.musicaviva.com

M:C
L:1/8
K:C
GA|G2EF G2A2|GFGA G2EF|G2AG AGFE|DCDE D2GA|G2EF G2A2|GFGA G2EF|G2AG F3E|D6:|
|:FE|D2GA G2FE|DCDE D2EF|G2AG F2GF|EDEF E2FE|D2GA G2EF|GFGA G2GF|EFEF D3C|C6:|

